X: 33771
T: Ravelled Hank Of Yarn, The
R: reel
M: 4/4
K: Gmajor
||B2 Bd A3 B|GBBB GABc|dAAA d2 eg|fdcA AGGA|
B2 Bd A2 AB|GBBB GABc|dAAA d2 eg|fdcA AGG2||
dG ~G2 dGBd|g2 ga bage|dGGG d2 eg|fdcA AGGB|
dGGG dGBd|g3 a bgaf|g2 ga bgag|fdcA AG G2||

